X:66
T: ES ZOGEN DREI BURSCHE WOHL UEBER DEN RHEIN
N: Z0067
O: Europa, Mitteleuropa, Deutschland, Rheinland
R: Sagen - Lied, Romanze, Tod
M: 2/4
L: 1/8
K: D
D2 | F2AA | d4 | B2
B2 | B2AA | A4 | z2
F2 | F2GG | A4 | E2
E2 | G2FF | F4 | z2
D2 | F2AA | d2d2 |
f4 | e2ee | d2

@@@ Tune index: 9824
